src/assets/Mail.svg

<!DOCTYPE svg PUBLIC "-//W3C//DTD SVG 1.1//EN" "http://www.w3.org/Graphics/SVG/1.1/DTD/svg11.dtd">
<!-- Uploaded to: SVG Repo, www.svgrepo.com, Transformed by: SVG Repo Mixer Tools -->
<svg width="800px" height="800px" viewBox="0 0 24 24" fill="none" xmlns="http://www.w3.org/2000/svg">
<g id="SVGRepo_bgCarrier" stroke-width="0"/>
<g id="SVGRepo_tracerCarrier" stroke-linecap="round" stroke-linejoin="round"/>
<g id="SVGRepo_iconCarrier"> <path d="M3 8L8.44992 11.6333C9.73295 12.4886 10.3745 12.9163 11.0678 13.0825C11.6806 13.2293 12.3194 13.2293 12.9322 13.0825C13.6255 12.9163 14.2671 12.4886 15.5501 11.6333L21 8M6.2 19H17.8C18.9201 19 19.4802 19 19.908 18.782C20.2843 18.5903 20.5903 18.2843 20.782 17.908C21 17.4802 21 16.9201 21 15.8V8.2C21 7.0799 21 6.51984 20.782 6.09202C20.5903 5.71569 20.2843 5.40973 19.908 5.21799C19.4802 5 18.9201 5 17.8 5H6.2C5.0799 5 4.51984 5 4.09202 5.21799C3.71569 5.40973 3.40973 5.71569 3.21799 6.09202C3 6.51984 3 7.07989 3 8.2V15.8C3 16.9201 3 17.4802 3.21799 17.908C3.40973 18.2843 3.71569 18.5903 4.09202 18.782C4.51984 19 5.07989 19 6.2 19Z" stroke="#34d399" stroke-width="2" stroke-linecap="round" stroke-linejoin="round"/> </g>
</svg>

<svg width="800" height="800" viewBox="0 0 24 24" fill="none" xmlns="http://www.w3.org/2000/svg"><path d="m3 8 5.45 3.633c1.283.856 1.925 1.283 2.618 1.45a4.001 4.001 0 0 0 1.864 0c.694-.167 1.335-.594 2.618-1.45L21 8M6.2 19h11.6c1.12 0 1.68 0 2.108-.218a2 2 0 0 0 .874-.874C21 17.48 21 16.92 21 15.8V8.2c0-1.12 0-1.68-.218-2.108a2 2 0 0 0-.874-.874C19.48 5 18.92 5 17.8 5H6.2c-1.12 0-1.68 0-2.108.218a2 2 0 0 0-.874.874C3 6.52 3 7.08 3 8.2v7.6c0 1.12 0 1.68.218 2.108a2 2 0 0 0 .874.874C4.52 19 5.08 19 6.2 19Z" stroke="#34d399" stroke-width="2" stroke-linecap="round" stroke-linejoin="round"/></svg>
